src/icons/categories/accessory.svg

<svg width="31" height="26" viewBox="0 0 31 26" fill="none" xmlns="http://www.w3.org/2000/svg">
<path d="M8.05212 25.6849H7.91031C4.27031 25.6849 1.3394 22.7382 1.3394 19.114V18.4049C1.32364 14.7491 4.27031 11.8182 7.89455 11.8182H8.03637C9.07637 11.8182 9.92728 12.6691 9.92728 13.7091V23.794C9.94304 24.834 9.09213 25.6849 8.05212 25.6849Z" fill="#F0592C"/>
<path d="M5.62547 25.2752C6.00365 25.417 6.39759 25.5115 6.79153 25.5903V11.897C6.38183 11.96 6.00365 12.0703 5.62547 12.2121V25.2752Z" fill="#DB4C22"/>
<path d="M8.05212 26H7.9103C4.09697 26 0.992722 22.9115 0.992722 19.0982V18.3891C0.992722 14.5758 4.08121 11.4873 7.89454 11.4873H8.03636C9.24969 11.4873 10.2582 12.48 10.2582 13.7091V23.7939C10.2582 25.0073 9.26545 26 8.05212 26ZM7.89454 12.1333C4.44363 12.1333 1.63878 14.9382 1.63878 18.3891V19.0982C1.63878 22.5491 4.44363 25.3539 7.89454 25.3539H8.03636C8.90303 25.3539 9.59636 24.6449 9.59636 23.7939V13.7091C9.59636 12.8424 8.88727 12.1491 8.03636 12.1491H7.89454V12.1333Z" fill="#332247"/>
<path d="M8.05213 11.8182H7.91031C7.53213 11.8182 7.16971 11.8497 6.80728 11.9128V25.5903C7.16971 25.6534 7.53213 25.6849 7.91031 25.6849H8.05213C9.09213 25.6849 9.94304 24.834 9.94304 23.794V13.7091C9.94304 12.6534 9.09213 11.8182 8.05213 11.8182Z" fill="#E7EFE7"/>
<path d="M8.05213 26H7.91032C7.53213 26 7.1382 25.9685 6.76001 25.9055L6.49213 25.8582V11.6291L6.76001 11.5818C7.1382 11.5188 7.53213 11.4873 7.91032 11.4873H8.05213C9.26547 11.4873 10.274 12.48 10.274 13.7091V23.7939C10.2582 25.0073 9.26547 26 8.05213 26ZM7.12244 25.3067C7.37456 25.3382 7.64244 25.3539 7.89456 25.3539H8.03638C8.90304 25.3539 9.59638 24.6449 9.59638 23.7939V13.7091C9.59638 12.8424 8.88729 12.1491 8.03638 12.1491H7.89456C7.64244 12.1491 7.37456 12.1649 7.12244 12.1964V25.3067Z" fill="#332247"/>
<path d="M7.81576 14.3551H6.80727C6.63394 14.3551 6.47636 14.2133 6.47636 14.0242C6.47636 13.8509 6.61818 13.6933 6.80727 13.6933H7.81576C7.98909 13.6933 8.14667 13.8351 8.14667 14.0242C8.13091 14.2133 7.98909 14.3551 7.81576 14.3551Z" fill="#332247"/>
<path d="M7.81574 16.7188H6.80726C6.63393 16.7188 6.47635 16.577 6.47635 16.3879C6.47635 16.2146 6.61817 16.057 6.80726 16.057H7.81574C7.98908 16.057 8.14665 16.1988 8.14665 16.3879C8.1309 16.5612 7.98908 16.7188 7.81574 16.7188Z" fill="#332247"/>
<path d="M7.81574 19.0667H6.80726C6.63393 19.0667 6.47635 18.9248 6.47635 18.7358C6.47635 18.5624 6.61817 18.4048 6.80726 18.4048H7.81574C7.98908 18.4048 8.14665 18.5467 8.14665 18.7358C8.1309 18.9248 7.98908 19.0667 7.81574 19.0667Z" fill="#332247"/>
<path d="M7.81574 21.4303H6.80726C6.63393 21.4303 6.47635 21.2885 6.47635 21.0994C6.47635 20.9103 6.61817 20.7685 6.80726 20.7685H7.81574C7.98908 20.7685 8.14665 20.9103 8.14665 21.0994C8.14665 21.2885 7.98908 21.4303 7.81574 21.4303Z" fill="#332247"/>
<path d="M7.81574 23.7782H6.80726C6.63393 23.7782 6.47635 23.6364 6.47635 23.4473C6.47635 23.2582 6.61817 23.1164 6.80726 23.1164H7.81574C7.98908 23.1164 8.14665 23.2582 8.14665 23.4473C8.14665 23.6364 7.98908 23.7782 7.81574 23.7782Z" fill="#332247"/>
<path d="M2.31637 22.234H1.35515C0.78788 22.234 0.33091 21.777 0.33091 21.2097V16.2933C0.33091 15.7261 0.78788 15.2691 1.35515 15.2691H2.31637C3.4194 17.4437 3.4194 20.0437 2.31637 22.234Z" fill="#F47A4D"/>
<path d="M2.50546 22.5649H1.35515C0.614546 22.5649 0 21.9661 0 21.2097V16.2934C0 15.5527 0.598788 14.9382 1.35515 14.9382H2.52121L2.61576 15.1115C3.76606 17.3806 3.76606 20.1067 2.61576 22.3758L2.50546 22.5649ZM1.35515 15.5843C0.961213 15.5843 0.646061 15.8994 0.646061 16.2934V21.2097C0.646061 21.6037 0.961213 21.9188 1.35515 21.9188H2.11152C3.05697 19.9176 3.05697 17.5855 2.11152 15.5843H1.35515Z" fill="#332247"/>
<path d="M22.5018 25.6848H22.6436C26.2836 25.6848 29.2145 22.7382 29.2145 19.1139V18.4048C29.2145 14.7648 26.2679 11.8339 22.6436 11.8339H22.5018C21.4618 11.8339 20.6109 12.6848 20.6109 13.7248V23.8097C20.6109 24.8339 21.4618 25.6848 22.5018 25.6848Z" fill="#F0592C"/>
<path d="M24.9285 25.2752C24.5503 25.417 24.1564 25.5115 23.7624 25.5903V11.897C24.1721 11.96 24.5503 12.0703 24.9285 12.2121V25.2752Z" fill="#DB4C22"/>
<path d="M22.6594 26H22.5176C21.3042 26 20.2958 25.0073 20.2958 23.7782V13.7091C20.2958 12.4958 21.2885 11.4873 22.5176 11.4873H22.6594C26.457 11.4873 29.5612 14.5758 29.5612 18.3891V19.0982C29.5612 22.9115 26.457 26 22.6594 26ZM22.5018 12.1333C21.6352 12.1333 20.9418 12.8424 20.9418 13.6933V23.7782C20.9418 24.6449 21.6509 25.3382 22.5018 25.3382H22.6436C26.0946 25.3382 28.8994 22.5333 28.8994 19.0824V18.3733C28.8994 14.9224 26.0946 12.1176 22.6436 12.1176H22.5018V12.1333Z" fill="#332247"/>
<path d="M22.5018 11.8182H22.6436C23.0218 11.8182 23.3842 11.8497 23.7467 11.9128V25.5903C23.3842 25.6534 23.0218 25.6849 22.6436 25.6849H22.5018C21.4618 25.6849 20.6109 24.834 20.6109 23.794V13.7091C20.6109 12.6534 21.4618 11.8182 22.5018 11.8182Z" fill="#E7EFE7"/>
<path d="M22.6594 26H22.5176C21.3042 26 20.2958 25.0073 20.2958 23.7782V13.7091C20.2958 12.4958 21.2885 11.4873 22.5176 11.4873H22.6594C23.0376 11.4873 23.4315 11.5188 23.8097 11.5818L24.0776 11.6291V25.8582L23.8097 25.9055C23.4315 25.9685 23.0376 26 22.6594 26ZM22.5018 12.1333C21.6352 12.1333 20.9418 12.8424 20.9418 13.6933V23.7782C20.9418 24.6449 21.6509 25.3382 22.5018 25.3382H22.6436C22.8958 25.3382 23.1636 25.3224 23.4158 25.2909V12.1806C23.1636 12.1491 22.8958 12.1333 22.6436 12.1333H22.5018Z" fill="#332247"/>
<path d="M23.7624 14.3551H22.754C22.5806 14.3551 22.423 14.2133 22.423 14.0242C22.423 13.8509 22.5649 13.6933 22.754 13.6933H23.7624C23.9358 13.6933 24.0933 13.8351 24.0933 14.0242C24.0776 14.2133 23.9358 14.3551 23.7624 14.3551Z" fill="#332247"/>
<path d="M23.7624 16.7188H22.754C22.5806 16.7188 22.423 16.577 22.423 16.3879C22.423 16.2146 22.5649 16.057 22.754 16.057H23.7624C23.9358 16.057 24.0934 16.1988 24.0934 16.3879C24.0776 16.5612 23.9358 16.7188 23.7624 16.7188Z" fill="#332247"/>
<path d="M23.7624 19.0667H22.754C22.5806 19.0667 22.423 18.9248 22.423 18.7358C22.423 18.5624 22.5649 18.4048 22.754 18.4048H23.7624C23.9358 18.4048 24.0934 18.5467 24.0934 18.7358C24.0776 18.9248 23.9358 19.0667 23.7624 19.0667Z" fill="#332247"/>
<path d="M23.7624 21.4303H22.754C22.5806 21.4303 22.423 21.2885 22.423 21.0994C22.423 20.9103 22.5649 20.7685 22.754 20.7685H23.7624C23.9358 20.7685 24.0934 20.9103 24.0934 21.0994C24.0934 21.2885 23.9358 21.4303 23.7624 21.4303Z" fill="#332247"/>
<path d="M23.7624 23.7782H22.754C22.5806 23.7782 22.423 23.6364 22.423 23.4473C22.423 23.2582 22.5649 23.1164 22.754 23.1164H23.7624C23.9358 23.1164 24.0934 23.2582 24.0934 23.4473C24.0934 23.6364 23.9358 23.7782 23.7624 23.7782Z" fill="#332247"/>
<path d="M28.2376 22.234H29.1988C29.7661 22.234 30.223 21.777 30.223 21.2097V16.2933C30.223 15.7261 29.7661 15.2691 29.1988 15.2691H28.2376C27.1346 17.4437 27.1346 20.0437 28.2376 22.234Z" fill="#F47A4D"/>
<path d="M29.1988 22.5649H28.0485L27.954 22.3915C26.8036 20.1224 26.8036 17.3964 27.954 15.1273L28.0485 14.9539H29.2146C29.9552 14.9539 30.5697 15.5527 30.5697 16.3091V21.2255C30.554 21.9503 29.9552 22.5649 29.1988 22.5649ZM28.4424 21.9188H29.1988C29.5927 21.9188 29.9079 21.6036 29.9079 21.2097V16.2933C29.9079 15.8994 29.5927 15.5843 29.1988 15.5843H28.4424C27.5127 17.5697 27.5127 19.9176 28.4424 21.9188Z" fill="#332247"/>
<path d="M30.2388 19.0667C30.0655 19.0667 29.9079 18.9249 29.9079 18.7358V16.1673C29.9079 8.09941 23.337 1.5285 15.2691 1.5285C7.20121 1.5285 0.630303 8.09941 0.630303 16.1673V18.7515C0.630303 18.9249 0.488485 19.0824 0.299394 19.0824C0.110303 19.0824 0 18.9249 0 18.7515V16.183C0 12.1018 1.59152 8.27274 4.47515 5.37335C7.35879 2.48971 11.2036 0.898193 15.2849 0.898193C19.3661 0.898193 23.1952 2.48971 26.0946 5.37335C28.9782 8.25698 30.5697 12.1018 30.5697 16.183V18.7515C30.554 18.9249 30.4121 19.0667 30.2388 19.0667Z" fill="#332247"/>
<path d="M28.08 9.34424C27.7806 9.34424 27.4812 9.18666 27.3079 8.90303C24.7394 4.66424 20.2327 2.12727 15.2849 2.12727C10.3212 2.12727 5.83031 4.66424 3.26183 8.90303C3.0097 9.32848 2.44243 9.4703 2.01698 9.20242C1.59152 8.9503 1.4497 8.38303 1.71758 7.95757C3.10425 5.67272 5.05819 3.7503 7.39031 2.4109C9.76971 1.05575 12.4958 0.330902 15.2849 0.330902C18.0582 0.330902 20.7843 1.05575 23.1794 2.44242C25.4958 3.78181 27.4655 5.68848 28.8521 7.98909C29.1043 8.41454 28.9782 8.96606 28.5527 9.23394C28.3952 9.29697 28.2376 9.34424 28.08 9.34424Z" fill="#F0592C"/>
<path d="M2.47394 9.6594C2.25333 9.6594 2.03273 9.59637 1.84364 9.48606C1.56 9.31273 1.37091 9.04485 1.29212 8.7297C1.21333 8.41455 1.2606 8.08364 1.43394 7.8C2.85212 5.46788 4.85333 3.51394 7.21697 2.14303C9.6594 0.740606 12.4485 0 15.2849 0C18.1212 0 20.9103 0.740606 23.3527 2.14303C25.7164 3.49818 27.7176 5.46788 29.1358 7.8C29.4824 8.38303 29.2933 9.1394 28.7261 9.48606C28.537 9.59637 28.3164 9.6594 28.0958 9.6594C27.6703 9.6594 27.2764 9.43879 27.04 9.07637C24.5188 4.93212 20.1382 2.45818 15.2849 2.45818C10.4473 2.45818 6.05091 4.93212 3.5297 9.07637C3.35636 9.36 3.08848 9.54909 2.77333 9.62788C2.67879 9.64364 2.58424 9.6594 2.47394 9.6594ZM15.2849 0.646061C12.5588 0.646061 9.89576 1.35515 7.54788 2.7103C5.27879 4.01818 3.35636 5.89334 2.00121 8.13091C1.92242 8.25697 1.89091 8.41455 1.93818 8.57212C1.9697 8.7297 2.06424 8.85576 2.20606 8.93455C2.33212 9.01334 2.4897 9.04485 2.64727 8.99758C2.80485 8.96606 2.93091 8.87152 3.0097 8.7297C5.64121 4.38061 10.2424 1.79636 15.3164 1.79636C20.3903 1.79636 24.9915 4.38061 27.623 8.7297C27.7333 8.90303 27.9067 9.01334 28.1115 9.01334C28.2218 9.01334 28.3164 8.98182 28.4109 8.93455C28.6788 8.77697 28.7733 8.41455 28.6 8.14667C27.2449 5.90909 25.3224 4.03394 23.0533 2.72606C20.6739 1.35515 17.9952 0.646061 15.2849 0.646061Z" fill="#332247"/>
</svg>

<svg viewBox="0 0 31 26" fill="none" xmlns="http://www.w3.org/2000/svg"><path d="M8.052 25.685H7.91a6.567 6.567 0 01-6.57-6.571v-.71a6.547 6.547 0 016.555-6.586h.141c1.04 0 1.891.851 1.891 1.891v10.085a1.873 1.873 0 01-1.875 1.89z" fill="#F0592C"/><path d="M5.625 25.275c.379.142.773.237 1.167.315V11.897c-.41.063-.788.173-1.167.315v13.063z" fill="#DB4C22"/><path d="M8.052 26H7.91C4.097 26 .993 22.912.993 19.098v-.709a6.9 6.9 0 016.902-6.902h.141a2.23 2.23 0 012.222 2.222v10.085A2.213 2.213 0 018.052 26zm-.157-13.867a6.261 6.261 0 00-6.256 6.256v.71a6.26 6.26 0 006.256 6.255h.141c.867 0 1.56-.71 1.56-1.56V13.709c0-.867-.709-1.56-1.56-1.56h-.141v-.016z" fill="#332247"/><path d="M8.052 11.818H7.91c-.378 0-.74.032-1.103.095V25.59c.363.063.725.095 1.103.095h.142c1.04 0 1.891-.851 1.891-1.891V13.709c0-1.056-.85-1.89-1.89-1.89z" fill="#E7EFE7"/><path d="M8.052 26H7.91c-.378 0-.772-.032-1.15-.095l-.268-.047V11.63l.268-.047a7.084 7.084 0 011.15-.095h.142a2.23 2.23 0 012.222 2.222v10.085A2.236 2.236 0 018.052 26zm-.93-.693c.253.031.52.047.773.047h.141c.867 0 1.56-.71 1.56-1.56V13.709c0-.867-.709-1.56-1.56-1.56h-.141c-.253 0-.52.016-.773.047v13.11z" fill="#332247"/><path d="M7.816 14.355H6.807a.333.333 0 01-.33-.33c0-.174.141-.332.33-.332h1.009c.173 0 .33.142.33.331-.015.19-.157.331-.33.331zM7.816 16.719H6.807a.333.333 0 01-.33-.331c0-.173.141-.331.33-.331h1.009c.173 0 .33.142.33.33-.015.174-.157.332-.33.332zM7.816 19.067H6.807a.333.333 0 01-.33-.331c0-.174.141-.331.33-.331h1.009c.173 0 .33.142.33.33-.015.19-.157.332-.33.332zM7.816 21.43H6.807a.333.333 0 01-.33-.33c0-.19.141-.332.33-.332h1.009c.173 0 .33.142.33.331 0 .19-.157.331-.33.331zM7.816 23.778H6.807a.333.333 0 01-.33-.33c0-.19.141-.332.33-.332h1.009c.173 0 .33.142.33.331 0 .19-.157.331-.33.331z" fill="#332247"/><path d="M2.316 22.234h-.96A1.022 1.022 0 01.33 21.21v-4.917c0-.567.457-1.024 1.024-1.024h.961a7.743 7.743 0 010 6.965z" fill="#F47A4D"/><path d="M2.505 22.565h-1.15C.615 22.565 0 21.966 0 21.21v-4.917c0-.74.599-1.355 1.355-1.355h1.166l.095.173a8.077 8.077 0 010 7.265l-.11.189zm-1.15-6.98a.706.706 0 00-.709.708v4.917c0 .394.315.709.71.709h.756a7.428 7.428 0 000-6.335h-.757z" fill="#332247"/><path d="M22.502 25.685h.142c3.64 0 6.57-2.947 6.57-6.571v-.71c0-3.64-2.946-6.57-6.57-6.57h-.142c-1.04 0-1.891.85-1.891 1.89V23.81c0 1.024.85 1.875 1.89 1.875z" fill="#F0592C"/><path d="M24.928 25.275a7.501 7.501 0 01-1.166.315V11.897c.41.063.788.173 1.166.315v13.063z" fill="#DB4C22"/><path d="M22.66 26h-.142a2.23 2.23 0 01-2.222-2.222V13.71a2.23 2.23 0 012.222-2.222h.141c3.798 0 6.902 3.089 6.902 6.902v.71c0 3.813-3.104 6.901-6.902 6.901zm-.158-13.867c-.867 0-1.56.71-1.56 1.56v10.085c0 .867.709 1.56 1.56 1.56h.142a6.261 6.261 0 006.255-6.256v-.709a6.26 6.26 0 00-6.255-6.255h-.142v.015z" fill="#332247"/><path d="M22.502 11.818h.142c.378 0 .74.032 1.103.095V25.59a6.375 6.375 0 01-1.103.095h-.142c-1.04 0-1.891-.851-1.891-1.891V13.709c0-1.056.85-1.89 1.89-1.89z" fill="#E7EFE7"/><path d="M22.66 26h-.142a2.23 2.23 0 01-2.222-2.222V13.71a2.23 2.23 0 012.222-2.222h.141c.379 0 .773.032 1.15.095l.269.047v14.23l-.268.046a7.084 7.084 0 01-1.15.095zm-.158-13.867c-.867 0-1.56.71-1.56 1.56v10.085c0 .867.709 1.56 1.56 1.56h.142c.252 0 .52-.016.772-.047V12.18a6.351 6.351 0 00-.772-.048h-.142z" fill="#332247"/><path d="M23.762 14.355h-1.008a.333.333 0 01-.331-.33c0-.174.142-.332.331-.332h1.008c.174 0 .331.142.331.331-.015.19-.157.331-.33.331zM23.762 16.719h-1.008a.333.333 0 01-.331-.331c0-.173.142-.331.331-.331h1.008c.174 0 .331.142.331.33-.015.174-.157.332-.33.332zM23.762 19.067h-1.008a.333.333 0 01-.331-.331c0-.174.142-.331.331-.331h1.008c.174 0 .331.142.331.33-.015.19-.157.332-.33.332zM23.762 21.43h-1.008a.333.333 0 01-.331-.33c0-.19.142-.332.331-.332h1.008c.174 0 .331.142.331.331 0 .19-.157.331-.33.331zM23.762 23.778h-1.008a.333.333 0 01-.331-.33c0-.19.142-.332.331-.332h1.008c.174 0 .331.142.331.331 0 .19-.157.331-.33.331z" fill="#332247"/><path d="M28.238 22.234h.96c.568 0 1.025-.457 1.025-1.024v-4.917c0-.567-.457-1.024-1.024-1.024h-.961a7.744 7.744 0 000 6.965z" fill="#F47A4D"/><path d="M29.199 22.565h-1.15l-.095-.174a8.076 8.076 0 010-7.264l.095-.173h1.166c.74 0 1.355.599 1.355 1.355v4.916a1.376 1.376 0 01-1.371 1.34zm-.757-.646h.757c.394 0 .709-.315.709-.71v-4.916a.706.706 0 00-.71-.709h-.756a7.542 7.542 0 000 6.335z" fill="#332247"/><path d="M30.239 19.067a.333.333 0 01-.331-.331v-2.569c0-8.068-6.571-14.639-14.639-14.639S.63 8.1.63 16.169v2.584c0 .173-.142.33-.33.33-.19 0-.3-.157-.3-.33v-2.569c0-4.081 1.592-7.91 4.475-10.81A15.198 15.198 0 0115.285.898c4.081 0 7.91 1.592 10.81 4.475a15.198 15.198 0 014.475 10.81v2.569a.341.341 0 01-.331.315z" fill="#332247"/><path d="M28.08 9.344a.911.911 0 01-.772-.441 13.972 13.972 0 00-12.023-6.776c-4.964 0-9.455 2.537-12.023 6.776a.899.899 0 01-1.245.3.899.899 0 01-.3-1.245A15.944 15.944 0 017.39 2.41 15.968 15.968 0 0115.285.33c2.773 0 5.5.725 7.894 2.111a15.94 15.94 0 015.673 5.547.916.916 0 01-.3 1.245 1.29 1.29 0 01-.472.11z" fill="#F0592C"/><path d="M2.474 9.66c-.22 0-.441-.064-.63-.174a1.22 1.22 0 01-.552-.756 1.208 1.208 0 01.142-.93 16.433 16.433 0 015.783-5.657A16.22 16.22 0 0115.285 0c2.836 0 5.625.74 8.068 2.143A16.3 16.3 0 0129.136 7.8a1.24 1.24 0 01-.41 1.686c-.189.11-.41.173-.63.173-.426 0-.82-.22-1.056-.583-2.521-4.144-6.902-6.618-11.755-6.618-4.838 0-9.234 2.474-11.755 6.618a1.22 1.22 0 01-.757.552c-.094.016-.189.031-.3.031zM15.284.645c-2.725 0-5.388.71-7.736 2.064A15.624 15.624 0 002 8.13a.536.536 0 00-.063.442.525.525 0 00.268.363c.126.078.284.11.441.063a.525.525 0 00.363-.268c2.631-4.35 7.232-6.934 12.306-6.934 5.074 0 9.675 2.585 12.307 6.934.11.173.284.283.488.283.11 0 .205-.031.3-.078a.566.566 0 00.189-.788 15.623 15.623 0 00-5.547-5.42 15.555 15.555 0 00-7.768-2.08z" fill="#332247"/></svg>
